shapes/letter-g.svg

<?xml version="1.0" encoding="UTF-8" standalone="no"?>
<svg
   version="1.2"
   width="78.941086mm"
   height="47.67461mm"
   viewBox="0 0 7894.1088 4767.4611"
   preserveAspectRatio="xMidYMid"
   fill-rule="evenodd"
   stroke-width="28.222"
   stroke-linejoin="round"
   xml:space="preserve"
   id="svg19"
   sodipodi:docname="letter-g.svg"
   inkscape:version="1.3 (0e150ed6c4, 2023-07-21)"
   xmlns:inkscape="http://www.inkscape.org/namespaces/inkscape"
   xmlns:sodipodi="http://sodipodi.sourceforge.net/DTD/sodipodi-0.dtd"
   xmlns="http://www.w3.org/2000/svg"
   xmlns:svg="http://www.w3.org/2000/svg"
   xmlns:ooo="http://xml.openoffice.org/svg/export"><sodipodi:namedview
   id="namedview19"
   pagecolor="#ffffff"
   bordercolor="#000000"
   borderopacity="0.25"
   inkscape:showpageshadow="2"
   inkscape:pageopacity="0.0"
   inkscape:pagecheckerboard="0"
   inkscape:deskcolor="#d1d1d1"
   inkscape:document-units="mm"
   inkscape:zoom="0.76988638"
   inkscape:cx="18.184501"
   inkscape:cy="272.11808"
   inkscape:window-width="1920"
   inkscape:window-height="1009"
   inkscape:window-x="-8"
   inkscape:window-y="-8"
   inkscape:window-maximized="1"
   inkscape:current-layer="svg19" />&#10; <defs
   class="ClipPathGroup"
   id="defs2">&#10;  <clipPath
   id="presentation_clip_path"
   clipPathUnits="userSpaceOnUse">&#10;   <rect
   x="0"
   y="0"
   width="21590"
   height="27940"
   id="rect1" />&#10;  </clipPath>&#10;  <clipPath
   id="presentation_clip_path_shrink"
   clipPathUnits="userSpaceOnUse">&#10;   <rect
   x="21"
   y="27"
   width="21547"
   height="27885"
   id="rect2" />&#10;  </clipPath>&#10; </defs>&#10; <defs
   class="TextShapeIndex"
   id="defs3">&#10;  <g
   ooo:slide="id1"
   ooo:id-list="id3"
   id="g2" />&#10; </defs>&#10; <defs
   class="EmbeddedBulletChars"
   id="defs12">&#10;  <g
   id="bullet-char-template-57356"
   transform="matrix(4.8828125e-4,0,0,-4.8828125e-4,0,0)">&#10;   <path
   d="M 580,1141 1163,571 580,0 -4,571 Z"
   id="path3" />&#10;  </g>&#10;  <g
   id="bullet-char-template-57354"
   transform="matrix(4.8828125e-4,0,0,-4.8828125e-4,0,0)">&#10;   <path
   d="M 8,1128 H 1137 V 0 H 8 Z"
   id="path4" />&#10;  </g>&#10;  <g
   id="bullet-char-template-10146"
   transform="matrix(4.8828125e-4,0,0,-4.8828125e-4,0,0)">&#10;   <path
   d="M 174,0 602,739 174,1481 1456,739 Z M 1358,739 309,1346 659,739 Z"
   id="path5" />&#10;  </g>&#10;  <g
   id="bullet-char-template-10132"
   transform="matrix(4.8828125e-4,0,0,-4.8828125e-4,0,0)">&#10;   <path
   d="M 2015,739 1276,0 H 717 l 543,543 H 174 v 393 h 1086 l -543,545 h 557 z"
   id="path6" />&#10;  </g>&#10;  <g
   id="bullet-char-template-10007"
   transform="matrix(4.8828125e-4,0,0,-4.8828125e-4,0,0)">&#10;   <path
   d="m 0,-2 c -7,16 -16,29 -25,39 l 381,530 c -94,256 -141,385 -141,387 0,25 13,38 40,38 9,0 21,-2 34,-5 21,4 42,12 65,25 l 27,-13 111,-251 280,301 64,-25 24,25 c 21,-10 41,-24 62,-43 C 886,937 835,863 770,784 769,783 710,716 594,584 L 774,223 c 0,-27 -21,-55 -63,-84 l 16,-20 C 717,90 699,76 672,76 641,76 570,178 457,381 L 164,-76 c -22,-34 -53,-51 -92,-51 -42,0 -63,17 -64,51 -7,9 -10,24 -10,44 0,9 1,19 2,30 z"
   id="path7" />&#10;  </g>&#10;  <g
   id="bullet-char-template-10004"
   transform="matrix(4.8828125e-4,0,0,-4.8828125e-4,0,0)">&#10;   <path
   d="M 285,-33 C 182,-33 111,30 74,156 52,228 41,333 41,471 c 0,78 14,145 41,201 34,71 87,106 158,106 53,0 88,-31 106,-94 l 23,-176 c 8,-64 28,-97 59,-98 l 735,706 c 11,11 33,17 66,17 42,0 63,-15 63,-46 V 965 c 0,-36 -10,-64 -30,-84 L 442,47 C 390,-6 338,-33 285,-33 Z"
   id="path8" />&#10;  </g>&#10;  <g
   id="bullet-char-template-9679"
   transform="matrix(4.8828125e-4,0,0,-4.8828125e-4,0,0)">&#10;   <path
   d="M 813,0 C 632,0 489,54 383,161 276,268 223,411 223,592 c 0,181 53,324 160,431 106,107 249,161 430,161 179,0 323,-54 432,-161 108,-107 162,-251 162,-431 0,-180 -54,-324 -162,-431 C 1136,54 992,0 813,0 Z"
   id="path9" />&#10;  </g>&#10;  <g
   id="bullet-char-template-8226"
   transform="matrix(4.8828125e-4,0,0,-4.8828125e-4,0,0)">&#10;   <path
   d="m 346,457 c -73,0 -137,26 -191,78 -54,51 -81,114 -81,188 0,73 27,136 81,188 54,52 118,78 191,78 73,0 134,-26 185,-79 51,-51 77,-114 77,-187 0,-75 -25,-137 -76,-188 -50,-52 -112,-78 -186,-78 z"
   id="path10" />&#10;  </g>&#10;  <g
   id="bullet-char-template-8211"
   transform="matrix(4.8828125e-4,0,0,-4.8828125e-4,0,0)">&#10;   <path
   d="M -4,459 H 1135 V 606 H -4 Z"
   id="path11" />&#10;  </g>&#10;  <g
   id="bullet-char-template-61548"
   transform="matrix(4.8828125e-4,0,0,-4.8828125e-4,0,0)">&#10;   <path
   d="m 173,740 c 0,163 58,303 173,419 116,115 255,173 419,173 163,0 302,-58 418,-173 116,-116 174,-256 174,-419 0,-163 -58,-303 -174,-418 C 1067,206 928,148 765,148 601,148 462,206 346,322 231,437 173,577 173,740 Z"
   id="path12" />&#10;  </g>&#10; </defs>&#10; &#10; &#10;<path
   d="m 1818.1836,2361.4062 v -612.6758 h 1582.5388 v 1448.5938 q -230.683,223.2422 -669.726,394.3945 -436.563,168.6719 -885.5276,168.6719 -570.5078,0 -994.668,-238.125 Q 426.6407,3281.6601 213.3203,2837.6562 0,2391.1718 0,1867.7929 0,1299.7656 238.125,858.2421 476.25,416.7187 935.1367,181.0742 1284.8828,0 1805.7813,0 q 677.1681,0 1056.6801,285.2539 381.992,282.7734 491.132,783.8281 l -729.257,136.4258 q -76.895,-267.8907 -290.215,-421.6797 -210.84,-156.2695 -528.3401,-156.2695 -481.211,0 -766.4649,305.0976 -282.7734,305.0977 -282.7734,905.3711 0,647.4023 287.7344,972.3438 287.7343,322.4609 754.0625,322.4609 230.6836,0 461.3675,-89.2969 233.164,-91.7773 399.355,-220.7617 v -461.3672 z m 3597.9368,1510.6055 796.23,96.7383 q 19.844,138.9062 91.778,190.9961 99.218,74.414 312.539,74.414 272.851,0 409.277,-81.8555 91.777,-54.5703 138.906,-176.1132 32.246,-86.8164 32.246,-319.9805 v -384.4727 q -312.539,426.6407 -788.789,426.6407 -530.82,0 -840.879,-448.9649 -243.086,-354.707 -243.086,-883.0469 0,-662.2851 317.5,-1012.0312 319.981,-349.7461 793.75,-349.7461 488.653,0 806.153,429.1211 v -369.5898 h 652.363 v 2363.8867 q 0,466.3281 -76.895,697.0117 -76.894,230.6836 -215.8,362.1484 -138.907,131.4649 -372.071,205.8789 -230.683,74.4141 -585.39,74.4141 -669.727,0 -950.02,-230.6836 -280.293,-228.2031 -280.293,-580.4297 0,-34.7265 2.481,-84.3359 z m 622.597,-1545.3321 q 0,419.1993 161.231,615.1563 163.711,193.4766 401.836,193.4766 255.488,0 431.601,-198.4375 176.114,-200.918 176.114,-592.8321 0,-409.2773 -168.672,-607.7148 -168.672,-198.4375 -426.641,-198.4375 -250.527,0 -414.238,195.957 -161.231,193.4766 -161.231,592.832 z"
   id="text19"
   style="font-weight:bold;font-size:5080px;line-height:1.25;font-family:Arial;-inkscape-font-specification:'Arial, Bold';letter-spacing:-1.85208px;stroke-width:746.707"
   aria-label="G g" /></svg>

<?xml version="1.0" encoding="UTF-8"?>
<!DOCTYPE svg PUBLIC "-//W3C//DTD SVG 1.1//EN" "http://www.w3.org/Graphics/SVG/1.1/DTD/svg11.dtd">
<svg version="1.2" width="215.9mm" height="279.4mm" viewBox="0 0 21590 27940" preserveAspectRatio="xMidYMid" fill-rule="evenodd" stroke-width="28.222" stroke-linejoin="round" xmlns="http://www.w3.org/2000/svg" xmlns:ooo="http://xml.openoffice.org/svg/export" xmlns:xlink="http://www.w3.org/1999/xlink" xmlns:presentation="http://sun.com/xmlns/staroffice/presentation" xmlns:smil="http://www.w3.org/2001/SMIL20/" xmlns:anim="urn:oasis:names:tc:opendocument:xmlns:animation:1.0" xmlns:svg="urn:oasis:names:tc:opendocument:xmlns:svg-compatible:1.0" xml:space="preserve">
 <defs class="ClipPathGroup">
  <clipPath id="presentation_clip_path" clipPathUnits="userSpaceOnUse">
   <rect x="0" y="0" width="21590" height="27940"/>
  </clipPath>
  <clipPath id="presentation_clip_path_shrink" clipPathUnits="userSpaceOnUse">
   <rect x="21" y="27" width="21547" height="27885"/>
  </clipPath>
 </defs>
 <defs class="TextShapeIndex">
  <g ooo:slide="id1" ooo:id-list="id3"/>
 </defs>
 <defs class="EmbeddedBulletChars">
  <g id="bullet-char-template-57356" transform="scale(0.00048828125,-0.00048828125)">
   <path d="M 580,1141 L 1163,571 580,0 -4,571 580,1141 Z"/>
  </g>
  <g id="bullet-char-template-57354" transform="scale(0.00048828125,-0.00048828125)">
   <path d="M 8,1128 L 1137,1128 1137,0 8,0 8,1128 Z"/>
  </g>
  <g id="bullet-char-template-10146" transform="scale(0.00048828125,-0.00048828125)">
   <path d="M 174,0 L 602,739 174,1481 1456,739 174,0 Z M 1358,739 L 309,1346 659,739 1358,739 Z"/>
  </g>
  <g id="bullet-char-template-10132" transform="scale(0.00048828125,-0.00048828125)">
   <path d="M 2015,739 L 1276,0 717,0 1260,543 174,543 174,936 1260,936 717,1481 1274,1481 2015,739 Z"/>
  </g>
  <g id="bullet-char-template-10007" transform="scale(0.00048828125,-0.00048828125)">
   <path d="M 0,-2 C -7,14 -16,27 -25,37 L 356,567 C 262,823 215,952 215,954 215,979 228,992 255,992 264,992 276,990 289,987 310,991 331,999 354,1012 L 381,999 492,748 772,1049 836,1024 860,1049 C 881,1039 901,1025 922,1006 886,937 835,863 770,784 769,783 710,716 594,584 L 774,223 C 774,196 753,168 711,139 L 727,119 C 717,90 699,76 672,76 641,76 570,178 457,381 L 164,-76 C 142,-110 111,-127 72,-127 30,-127 9,-110 8,-76 1,-67 -2,-52 -2,-32 -2,-23 -1,-13 0,-2 Z"/>
  </g>
  <g id="bullet-char-template-10004" transform="scale(0.00048828125,-0.00048828125)">
   <path d="M 285,-33 C 182,-33 111,30 74,156 52,228 41,333 41,471 41,549 55,616 82,672 116,743 169,778 240,778 293,778 328,747 346,684 L 369,508 C 377,444 397,411 428,410 L 1163,1116 C 1174,1127 1196,1133 1229,1133 1271,1133 1292,1118 1292,1087 L 1292,965 C 1292,929 1282,901 1262,881 L 442,47 C 390,-6 338,-33 285,-33 Z"/>
  </g>
  <g id="bullet-char-template-9679" transform="scale(0.00048828125,-0.00048828125)">
   <path d="M 813,0 C 632,0 489,54 383,161 276,268 223,411 223,592 223,773 276,916 383,1023 489,1130 632,1184 813,1184 992,1184 1136,1130 1245,1023 1353,916 1407,772 1407,592 1407,412 1353,268 1245,161 1136,54 992,0 813,0 Z"/>
  </g>
  <g id="bullet-char-template-8226" transform="scale(0.00048828125,-0.00048828125)">
   <path d="M 346,457 C 273,457 209,483 155,535 101,586 74,649 74,723 74,796 101,859 155,911 209,963 273,989 346,989 419,989 480,963 531,910 582,859 608,796 608,723 608,648 583,586 532,535 482,483 420,457 346,457 Z"/>
  </g>
  <g id="bullet-char-template-8211" transform="scale(0.00048828125,-0.00048828125)">
   <path d="M -4,459 L 1135,459 1135,606 -4,606 -4,459 Z"/>
  </g>
  <g id="bullet-char-template-61548" transform="scale(0.00048828125,-0.00048828125)">
   <path d="M 173,740 C 173,903 231,1043 346,1159 462,1274 601,1332 765,1332 928,1332 1067,1274 1183,1159 1299,1043 1357,903 1357,740 1357,577 1299,437 1183,322 1067,206 928,148 765,148 601,148 462,206 346,322 231,437 173,577 173,740 Z"/>
  </g>
 </defs>
 <g>
  <g id="id2" class="Master_Slide">
   <g id="bg-id2" class="Background"/>
   <g id="bo-id2" class="BackgroundObjects"/>
  </g>
 </g>
 <g class="SlideGroup">
  <g>
   <g id="container-id1">
    <g id="id1" class="Slide" clip-path="url(#presentation_clip_path)">
     <g class="Page">
      <g class="com.sun.star.drawing.CustomShape">
       <g id="id3">
        <rect class="BoundingBox" stroke="none" fill="none" x="7449" y="5722" width="5077" height="2566"/>
        <path fill="rgb(0,0,0)" stroke="none" d="M 8503,6590 L 9462,6590 9462,7554 9367,7577 9269,7598 9170,7616 9067,7632 8962,7645 8849,7654 8729,7659 8602,7660 8470,7656 8346,7645 8230,7626 8175,7614 8122,7599 8071,7583 8022,7564 7974,7544 7929,7523 7886,7498 7844,7473 7804,7445 7767,7416 7731,7384 7699,7351 7668,7316 7640,7279 7614,7241 7590,7201 7548,7115 7517,7022 7494,6923 7480,6816 7476,6702 7478,6630 7484,6561 7496,6494 7512,6430 7533,6368 7558,6308 7588,6252 7622,6196 7662,6145 7705,6096 7752,6050 7804,6008 7860,5967 7919,5931 7984,5897 8052,5866 8124,5839 8200,5815 8281,5794 8365,5778 8453,5765 8544,5756 8640,5750 8740,5749 8837,5750 8933,5757 9027,5767 9121,5780 9212,5797 9298,5817 9381,5839 9459,5863 9289,6179 9261,6168 9232,6157 9171,6138 9106,6120 9036,6105 9000,6099 8963,6093 8927,6088 8890,6084 8852,6081 8814,6079 8737,6077 8681,6078 8629,6082 8577,6088 8528,6096 8480,6108 8434,6121 8391,6137 8348,6155 8309,6176 8271,6198 8236,6223 8203,6249 8173,6277 8145,6308 8119,6341 8095,6375 8074,6411 8055,6450 8040,6489 8027,6530 8017,6572 8010,6617 8005,6663 8004,6710 8005,6755 8009,6798 8013,6841 8021,6882 8029,6922 8040,6960 8053,6997 8069,7033 8086,7067 8106,7099 8127,7130 8151,7158 8178,7185 8207,7209 8238,7232 8272,7253 8308,7271 8347,7288 8388,7301 8433,7313 8480,7321 8529,7327 8581,7331 8635,7332 8688,7331 8736,7330 8780,7328 8820,7325 8857,7320 8893,7316 8961,7306 8961,6918 8503,6918 8503,6590 Z M 11481,6186 L 11523,6187 11565,6190 11604,6194 11643,6200 11680,6206 11717,6216 11752,6226 11787,6238 11819,6252 11851,6267 11881,6285 11911,6303 11939,6323 11966,6346 11991,6369 12016,6394 12031,6394 12071,6212 12498,6212 12498,7637 12495,7711 12484,7780 12466,7845 12454,7876 12440,7905 12424,7934 12407,7961 12387,7987 12367,8012 12344,8036 12319,8059 12293,8081 12264,8101 12234,8120 12202,8138 12169,8155 12133,8170 12096,8184 12058,8198 11974,8220 11885,8237 11788,8250 11683,8257 11572,8260 11476,8259 11383,8255 11294,8250 11208,8241 11124,8230 11042,8216 10961,8198 10880,8176 10880,7866 10966,7892 11054,7915 11143,7933 11232,7949 11323,7960 11415,7969 11508,7974 11603,7976 11650,7974 11694,7971 11736,7964 11774,7955 11809,7944 11841,7930 11869,7914 11896,7894 11918,7874 11938,7849 11955,7823 11970,7794 11979,7762 11987,7728 11992,7692 11994,7653 11994,7624 11995,7579 11996,7556 11998,7533 12007,7450 11994,7450 11968,7477 11943,7502 11916,7525 11889,7546 11860,7565 11830,7582 11799,7598 11766,7611 11732,7623 11698,7633 11662,7641 11625,7648 11587,7654 11548,7657 11508,7660 11467,7660 11427,7660 11387,7657 11348,7654 11311,7649 11275,7641 11241,7633 11207,7624 11174,7612 11143,7599 11112,7585 11083,7569 11054,7552 11027,7533 11001,7512 10977,7490 10953,7467 10930,7442 10910,7416 10873,7360 10841,7299 10815,7234 10794,7164 10780,7090 10772,7010 10768,6926 10772,6842 10780,6761 10795,6686 10816,6616 10842,6550 10875,6489 10914,6433 10936,6407 10959,6382 10983,6359 11009,6336 11035,6315 11062,6297 11091,6279 11121,6262 11152,6248 11184,6236 11218,6224 11251,6214 11287,6206 11323,6199 11361,6193 11400,6190 11440,6187 11481,6186 Z M 11640,6501 L 11596,6503 11556,6508 11519,6516 11484,6528 11453,6543 11423,6562 11396,6584 11373,6609 11353,6638 11334,6669 11319,6704 11306,6743 11296,6786 11289,6831 11284,6931 11289,7030 11297,7076 11307,7116 11320,7155 11335,7190 11354,7221 11374,7249 11399,7274 11425,7296 11456,7314 11489,7329 11523,7340 11563,7349 11603,7354 11647,7355 11694,7354 11738,7350 11778,7344 11798,7340 11815,7335 11832,7329 11850,7323 11866,7315 11880,7308 11896,7299 11909,7291 11922,7281 11934,7271 11945,7260 11955,7248 11965,7235 11974,7221 11983,7206 11990,7190 12003,7155 12014,7116 12022,7073 12026,7026 12027,6975 12027,6928 12026,6873 12022,6822 12014,6775 12004,6732 11991,6693 11976,6659 11967,6643 11958,6628 11947,6613 11936,6601 11924,6589 11911,6577 11898,6567 11883,6557 11867,6548 11851,6541 11834,6533 11816,6527 11797,6521 11777,6516 11756,6511 11735,6507 11689,6503 11640,6501 Z"/>
        <path fill="none" stroke="rgb(128,128,128)" stroke-width="53" stroke-linejoin="miter" d="M 8503,6590 L 9462,6590 9462,7554 9367,7577 9269,7598 9170,7616 9067,7632 8962,7645 8849,7654 8729,7659 8602,7660 8470,7656 8346,7645 8230,7626 8175,7614 8122,7599 8071,7583 8022,7564 7974,7544 7929,7523 7886,7498 7844,7473 7804,7445 7767,7416 7731,7384 7699,7351 7668,7316 7640,7279 7614,7241 7590,7201 7548,7115 7517,7022 7494,6923 7480,6816 7476,6702 7478,6630 7484,6561 7496,6494 7512,6430 7533,6368 7558,6308 7588,6252 7622,6196 7662,6145 7705,6096 7752,6050 7804,6008 7860,5967 7919,5931 7984,5897 8052,5866 8124,5839 8200,5815 8281,5794 8365,5778 8453,5765 8544,5756 8640,5750 8740,5749 8837,5750 8933,5757 9027,5767 9121,5780 9212,5797 9298,5817 9381,5839 9459,5863 9289,6179 9261,6168 9232,6157 9171,6138 9106,6120 9036,6105 9000,6099 8963,6093 8927,6088 8890,6084 8852,6081 8814,6079 8737,6077 8681,6078 8629,6082 8577,6088 8528,6096 8480,6108 8434,6121 8391,6137 8348,6155 8309,6176 8271,6198 8236,6223 8203,6249 8173,6277 8145,6308 8119,6341 8095,6375 8074,6411 8055,6450 8040,6489 8027,6530 8017,6572 8010,6617 8005,6663 8004,6710 8005,6755 8009,6798 8013,6841 8021,6882 8029,6922 8040,6960 8053,6997 8069,7033 8086,7067 8106,7099 8127,7130 8151,7158 8178,7185 8207,7209 8238,7232 8272,7253 8308,7271 8347,7288 8388,7301 8433,7313 8480,7321 8529,7327 8581,7331 8635,7332 8688,7331 8736,7330 8780,7328 8820,7325 8857,7320 8893,7316 8961,7306 8961,6918 8503,6918 8503,6590 Z"/>
        <path fill="none" stroke="rgb(128,128,128)" stroke-width="53" stroke-linejoin="miter" d="M 11481,6186 L 11523,6187 11565,6190 11604,6194 11643,6200 11680,6206 11717,6216 11752,6226 11787,6238 11819,6252 11851,6267 11881,6285 11911,6303 11939,6323 11966,6346 11991,6369 12016,6394 12031,6394 12071,6212 12498,6212 12498,7637 12495,7711 12484,7780 12466,7845 12454,7876 12440,7905 12424,7934 12407,7961 12387,7987 12367,8012 12344,8036 12319,8059 12293,8081 12264,8101 12234,8120 12202,8138 12169,8155 12133,8170 12096,8184 12058,8198 11974,8220 11885,8237 11788,8250 11683,8257 11572,8260 11476,8259 11383,8255 11294,8250 11208,8241 11124,8230 11042,8216 10961,8198 10880,8176 10880,7866 10966,7892 11054,7915 11143,7933 11232,7949 11323,7960 11415,7969 11508,7974 11603,7976 11650,7974 11694,7971 11736,7964 11774,7955 11809,7944 11841,7930 11869,7914 11896,7894 11918,7874 11938,7849 11955,7823 11970,7794 11979,7762 11987,7728 11992,7692 11994,7653 11994,7624 11995,7579 11996,7556 11998,7533 12007,7450 11994,7450 11968,7477 11943,7502 11916,7525 11889,7546 11860,7565 11830,7582 11799,7598 11766,7611 11732,7623 11698,7633 11662,7641 11625,7648 11587,7654 11548,7657 11508,7660 11467,7660 11427,7660 11387,7657 11348,7654 11311,7649 11275,7641 11241,7633 11207,7624 11174,7612 11143,7599 11112,7585 11083,7569 11054,7552 11027,7533 11001,7512 10977,7490 10953,7467 10930,7442 10910,7416 10873,7360 10841,7299 10815,7234 10794,7164 10780,7090 10772,7010 10768,6926 10772,6842 10780,6761 10795,6686 10816,6616 10842,6550 10875,6489 10914,6433 10936,6407 10959,6382 10983,6359 11009,6336 11035,6315 11062,6297 11091,6279 11121,6262 11152,6248 11184,6236 11218,6224 11251,6214 11287,6206 11323,6199 11361,6193 11400,6190 11440,6187 11481,6186 Z"/>
        <path fill="none" stroke="rgb(128,128,128)" stroke-width="53" stroke-linejoin="miter" d="M 11640,6501 L 11596,6503 11556,6508 11519,6516 11484,6528 11453,6543 11423,6562 11396,6584 11373,6609 11353,6638 11334,6669 11319,6704 11306,6743 11296,6786 11289,6831 11284,6931 11289,7030 11297,7076 11307,7116 11320,7155 11335,7190 11354,7221 11374,7249 11399,7274 11425,7296 11456,7314 11489,7329 11523,7340 11563,7349 11603,7354 11647,7355 11694,7354 11738,7350 11778,7344 11798,7340 11815,7335 11832,7329 11850,7323 11866,7315 11880,7308 11896,7299 11909,7291 11922,7281 11934,7271 11945,7260 11955,7248 11965,7235 11974,7221 11983,7206 11990,7190 12003,7155 12014,7116 12022,7073 12026,7026 12027,6975 12027,6928 12026,6873 12022,6822 12014,6775 12004,6732 11991,6693 11976,6659 11967,6643 11958,6628 11947,6613 11936,6601 11924,6589 11911,6577 11898,6567 11883,6557 11867,6548 11851,6541 11834,6533 11816,6527 11797,6521 11777,6516 11756,6511 11735,6507 11689,6503 11640,6501 Z"/>
       </g>
      </g>
     </g>
    </g>
   </g>
  </g>
 </g>
</svg>
